file/france-24.svg

<svg clip-rule="evenodd" fill-rule="evenodd" stroke-linejoin="round" stroke-miterlimit="1.41421" viewBox="0 0 560 400" xmlns="http://www.w3.org/2000/svg"><g fill-rule="nonzero" transform="matrix(1.91405 0 0 1.91405 145 65.0038)"><path d="m141.059 141.058v-6.895c-7.066 2.615-13.758 4.899-20.102 6.895z" fill="#00a7e3"/><path d="m66.689 91.546c3.212 2.162 12.016 2.115 21.409-.118 11.672-2.775 20.582-7.937 19.834-11.541-.123-.587-.525-1.119-1.177-1.559-3.238-2.172-12.03-2.121-21.403.111-9.393 2.234-17.372 6.159-19.406 9.561-.426.698-.578 1.384-.448 1.957.122.601.525 1.134 1.191 1.589" fill="#00a7e3"/><path d="m95.455 126.373c-28.467 6.753-54.85 6.407-65.673-.861-2.638-1.78-4.237-3.914-4.758-6.377-.821-3.893 1.221-8.404 5.902-13.066.065-.048.165-.048.221 0 .061.049.075.187.027.246-2.312 3.047-3.208 5.91-2.66 8.484.434 2.087 1.821 3.93 4.107 5.452 9.934 6.687 34.715 6.882 61.656.507 18.963-4.521 35.957-11.554 46.781-19.341v-101.417h-141.058v141.058h12.977c-.997-1.39-1.69-2.877-2.029-4.468-.165-.801-.247-1.618-.247-2.431 0-3.483 1.493-7.212 4.448-11.12.035-.049.144-.073.209-.01l.061.211c-1.664 3.062-2.216 5.952-1.664 8.603.806 3.805 3.84 6.891 8.62 9.215h73.224c.958-.216 1.908-.415 2.872-.643 15.518-3.694 30.184-8.8 42.588-14.812v-17.2c-11.64 7.356-27.762 13.741-45.604 17.97m-10.344-49.029c14.237-3.378 26.648-2.225 27.674 2.587.184.911-.029 1.924-.664 2.953-2.65 4.425-12.008 9.186-23.334 11.892-14.241 3.362-26.644 2.216-27.665-2.581-1.003-4.805 9.729-11.469 23.989-14.851m-34.68 14.341c.073-.04.17-.04.208.037.065.072.039.177-.014.226-3.676 3.139-5.322 6.105-4.798 8.604.274 1.324 1.162 2.498 2.621 3.481 6.558 4.41 23.964 4.459 42.331.098 23.185-5.521 40.789-16.064 39.208-23.556-.548-2.489-3.242-4.444-7.802-5.598-.086-.04-.143-.11-.121-.221.021-.074.109-.132.188-.125 7.483 1.219 11.877 3.808 12.65 7.509.361 1.645-.051 3.454-1.19 5.349-4.773 7.983-21.631 16.593-41.947 21.419-20.314 4.811-39.015 4.663-46.55-.403-1.795-1.219-2.872-2.648-3.22-4.324-.77-3.708 2.139-8.025 8.436-12.496" fill="#00a7e3"/><g fill="#fff"><path d="m141.062 134.162v-8.562l-.003.002v8.562z"/><path d="m95.598 141.058h25.359c6.344-1.995 13.035-4.279 20.102-6.895v-8.561c-12.404 6.013-27.07 11.118-42.588 14.811-.964.23-1.915.429-2.873.645"/><path d="m13.755 131.843c-.552-2.65 0-5.54 1.664-8.603l-.061-.21c-.065-.065-.174-.04-.209.008-2.955 3.909-4.449 7.638-4.449 11.121 0 .812.082 1.629.247 2.431.34 1.591 1.033 3.078 2.03 4.468h9.398c-4.78-2.324-7.814-5.41-8.62-9.215"/><path d="m45.215 108.504c7.537 5.066 26.236 5.215 46.551.403 20.316-4.826 37.174-13.436 41.947-21.419 1.139-1.895 1.55-3.704 1.19-5.349-.774-3.7-5.167-6.29-12.651-7.509-.078-.007-.166.051-.188.125-.021.11.035.181.121.221 4.559 1.153 7.254 3.108 7.802 5.598 1.581 7.492-16.023 18.033-39.208 23.556-18.366 4.361-35.773 4.312-42.331-.098-1.459-.983-2.347-2.157-2.62-3.481-.525-2.498 1.121-5.465 4.798-8.604.052-.049.078-.153.013-.226-.038-.077-.134-.077-.208-.037-6.297 4.471-9.205 8.788-8.436 12.495.348 1.677 1.426 3.107 3.22 4.325"/><path d="m141.062 108.399v-6.984l-.003.003v6.984z"/><path d="m32.621 120.252c-2.286-1.521-3.673-3.365-4.107-5.452-.548-2.574.348-5.438 2.66-8.484.048-.059.034-.197-.027-.246-.056-.047-.156-.047-.221 0-4.68 4.662-6.722 9.173-5.902 13.066.521 2.463 2.12 4.597 4.758 6.377 10.823 7.269 37.206 7.614 65.673.861 17.842-4.229 33.964-10.614 45.603-17.972v-6.983c-10.824 7.786-27.818 14.819-46.781 19.341-26.941 6.374-51.722 6.18-61.656-.508"/><path d="m88.787 94.776c11.326-2.706 20.683-7.467 23.334-11.892.635-1.03.848-2.042.664-2.953-1.025-4.812-13.438-5.965-27.674-2.587-14.26 3.382-24.993 10.046-23.99 14.851 1.022 4.797 13.425 5.943 27.666 2.581m-22.841-6.776c2.034-3.402 10.013-7.327 19.406-9.561 9.373-2.232 18.165-2.283 21.403-.111.651.439 1.054.972 1.177 1.559.748 3.604-8.162 8.766-19.834 11.541-9.393 2.233-18.197 2.28-21.409.118-.666-.455-1.069-.988-1.191-1.589-.13-.573.022-1.258.448-1.957"/><path d="m58.126 30.026 1.796-6.729 1.87 6.729zm-1.101-12.377-6.348 18.773h5.694l.654-2.49h5.764l.696 2.49h5.778l-6.339-18.773zm-39.402 18.773h5.822v-6.352h6.358v-4.395h-6.358v-3.67h7.987v-4.381h-13.809zm105.8-14.417v-4.381h-14.626v18.798h14.626v-4.373h-8.804v-2.846h7.295v-4.364h-7.295v-2.834zm-81.001 3.723h-3.34v-3.765h3.34c1.156 0 1.729.631 1.729 1.886 0 1.239-.572 1.879-1.729 1.879m6.89-1.745c0-4.089-2.329-6.334-6.553-6.334h-9.05v18.773h5.373v-6.386h1.856c.246.497 3.119 6.386 3.119 6.386h5.791s-3.269-6.481-3.769-7.388c1.979-.864 3.233-2.763 3.233-5.051m48.817 8.202c-2.533 0-3.371-2.617-3.371-5.154 0-2.523.838-5.163 3.371-5.163 2.254 0 2.759 2.088 2.867 2.771h5.306c-.47-4.714-3.143-7.426-8.019-7.435-5.457 0-8.996 3.912-8.996 9.827 0 5.558 3.254 9.833 8.996 9.833 5.181 0 8.093-4.023 8.093-7.803h-5.369c-.328 1.76-1.034 3.124-2.878 3.124m-16.611-4.51h-.051l-5.162-10.026h-5.6v18.773h5.178v-10.265h.039l5.448 10.265h5.314v-18.773h-5.166z"/><path d="m58.358 60.351h-7.81l7.81-9.503zm9.57 0v-18.917h-9.152l-14.629 18.052v7.605h-13.911v-.048c6.032-3.905 14.025-6.639 14.025-15.331 0-7.211-5.281-10.661-13.068-10.661-8.605 0-14.077 5.346-13.57 14.672h8.653c-.108-4.146 1.144-6.978 4.835-6.978 2.137 0 3.858 1.076 3.858 4.14 0 2.498-2.682 3.843-4.319 4.916-4.107 2.651-8.688 5.236-11.379 9.188-1.569 2.29-2.481 5.135-2.294 8.395h27.745v-6.754h13.637v6.754h9.569v-6.754h4.33v-8.279z"/></g></g></svg>

<?xml version="1.0" encoding="UTF-8" standalone="no"?>
<!DOCTYPE svg PUBLIC "-//W3C//DTD SVG 1.1//EN" "http://www.w3.org/Graphics/SVG/1.1/DTD/svg11.dtd">
<svg width="100%" height="100%" viewBox="0 0 560 400" version="1.1" xmlns="http://www.w3.org/2000/svg" xmlns:xlink="http://www.w3.org/1999/xlink" xml:space="preserve" xmlns:serif="http://www.serif.com/" style="fill-rule:evenodd;clip-rule:evenodd;stroke-linejoin:round;stroke-miterlimit:1.41421;">
    <g transform="matrix(1.91405,0,0,1.91405,145,65.0038)">
        <path d="M141.059,141.058L141.059,134.163C133.993,136.778 127.301,139.062 120.957,141.058L141.059,141.058Z" style="fill:rgb(0,167,227);fill-rule:nonzero;"/>
        <path d="M66.689,91.546C69.901,93.708 78.705,93.661 88.098,91.428C99.77,88.653 108.68,83.491 107.932,79.887C107.809,79.3 107.407,78.768 106.755,78.328C103.517,76.156 94.725,76.207 85.352,78.439C75.959,80.673 67.98,84.598 65.946,88C65.52,88.698 65.368,89.384 65.498,89.957C65.62,90.558 66.023,91.091 66.689,91.546" style="fill:rgb(0,167,227);fill-rule:nonzero;"/>
        <path d="M95.455,126.373C66.988,133.126 40.605,132.78 29.782,125.512C27.144,123.732 25.545,121.598 25.024,119.135C24.203,115.242 26.245,110.731 30.926,106.069C30.991,106.021 31.091,106.021 31.147,106.069C31.208,106.118 31.222,106.256 31.174,106.315C28.862,109.362 27.966,112.225 28.514,114.799C28.948,116.886 30.335,118.729 32.621,120.251C42.555,126.938 67.336,127.133 94.277,120.758C113.24,116.237 130.234,109.204 141.058,101.417L141.058,0L0,0L0,141.058L12.977,141.058C11.98,139.668 11.287,138.181 10.948,136.59C10.783,135.789 10.701,134.972 10.701,134.159C10.701,130.676 12.194,126.947 15.149,123.039C15.184,122.99 15.293,122.966 15.358,123.029L15.419,123.24C13.755,126.302 13.203,129.192 13.755,131.843C14.561,135.648 17.595,138.734 22.375,141.058L95.599,141.058C96.557,140.842 97.507,140.643 98.471,140.415C113.989,136.721 128.655,131.615 141.059,125.603L141.059,108.403C129.419,115.759 113.297,122.144 95.455,126.373M85.111,77.344C99.348,73.966 111.759,75.119 112.785,79.931C112.969,80.842 112.756,81.855 112.121,82.884C109.471,87.309 100.113,92.07 88.787,94.776C74.546,98.138 62.143,96.992 61.122,92.195C60.119,87.39 70.851,80.726 85.111,77.344M50.431,91.685C50.504,91.645 50.601,91.645 50.639,91.722C50.704,91.794 50.678,91.899 50.625,91.948C46.949,95.087 45.303,98.053 45.827,100.552C46.101,101.876 46.989,103.05 48.448,104.033C55.006,108.443 72.412,108.492 90.779,104.131C113.964,98.61 131.568,88.067 129.987,80.575C129.439,78.086 126.745,76.131 122.185,74.977C122.099,74.937 122.042,74.867 122.064,74.756C122.085,74.682 122.173,74.624 122.252,74.631C129.735,75.85 134.129,78.439 134.902,82.14C135.263,83.785 134.851,85.594 133.712,87.489C128.939,95.472 112.081,104.082 91.765,108.908C71.451,113.719 52.75,113.571 45.215,108.505C43.42,107.286 42.343,105.857 41.995,104.181C41.225,100.473 44.134,96.156 50.431,91.685" style="fill:rgb(0,167,227);fill-rule:nonzero;"/>
        <g>
            <path d="M141.062,134.162L141.062,125.6L141.059,125.602L141.059,134.164L141.062,134.162" style="fill:white;fill-rule:nonzero;"/>
            <path d="M95.598,141.058L120.957,141.058C127.301,139.063 133.992,136.779 141.059,134.163L141.059,125.602C128.655,131.615 113.989,136.72 98.471,140.413C97.507,140.643 96.556,140.842 95.598,141.058" style="fill:white;fill-rule:nonzero;"/>
            <path d="M13.755,131.843C13.203,129.193 13.755,126.303 15.419,123.24L15.358,123.03C15.293,122.965 15.184,122.99 15.149,123.038C12.194,126.947 10.7,130.676 10.7,134.159C10.7,134.971 10.782,135.788 10.947,136.59C11.287,138.181 11.98,139.668 12.977,141.058L22.375,141.058C17.595,138.734 14.561,135.648 13.755,131.843" style="fill:white;fill-rule:nonzero;"/>
            <path d="M45.215,108.504C52.752,113.57 71.451,113.719 91.766,108.907C112.082,104.081 128.94,95.471 133.713,87.488C134.852,85.593 135.263,83.784 134.903,82.139C134.129,78.439 129.736,75.849 122.252,74.63C122.174,74.623 122.086,74.681 122.064,74.755C122.043,74.865 122.099,74.936 122.185,74.976C126.744,76.129 129.439,78.084 129.987,80.574C131.568,88.066 113.964,98.607 90.779,104.13C72.413,108.491 55.006,108.442 48.448,104.032C46.989,103.049 46.101,101.875 45.828,100.551C45.303,98.053 46.949,95.086 50.626,91.947C50.678,91.898 50.704,91.794 50.639,91.721C50.601,91.644 50.505,91.644 50.431,91.684C44.134,96.155 41.226,100.472 41.995,104.179C42.343,105.856 43.421,107.286 45.215,108.504" style="fill:white;fill-rule:nonzero;"/>
            <path d="M141.062,108.399L141.062,101.415L141.059,101.418L141.059,108.402L141.062,108.399" style="fill:white;fill-rule:nonzero;"/>
            <path d="M32.621,120.252C30.335,118.731 28.948,116.887 28.514,114.8C27.966,112.226 28.862,109.362 31.174,106.316C31.222,106.257 31.208,106.119 31.147,106.07C31.091,106.023 30.991,106.023 30.926,106.07C26.246,110.732 24.204,115.243 25.024,119.136C25.545,121.599 27.144,123.733 29.782,125.513C40.605,132.782 66.988,133.127 95.455,126.374C113.297,122.145 129.419,115.76 141.058,108.402L141.058,101.419C130.234,109.205 113.24,116.238 94.277,120.76C67.336,127.134 42.555,126.94 32.621,120.252" style="fill:white;fill-rule:nonzero;"/>
            <path d="M88.787,94.776C100.113,92.07 109.47,87.309 112.121,82.884C112.756,81.854 112.969,80.842 112.785,79.931C111.76,75.119 99.347,73.966 85.111,77.344C70.851,80.726 60.118,87.39 61.121,92.195C62.143,96.992 74.546,98.138 88.787,94.776M65.946,88C67.98,84.598 75.959,80.673 85.352,78.439C94.725,76.207 103.517,76.156 106.755,78.328C107.406,78.767 107.809,79.3 107.932,79.887C108.68,83.491 99.77,88.653 88.098,91.428C78.705,93.661 69.901,93.708 66.689,91.546C66.023,91.091 65.62,90.558 65.498,89.957C65.368,89.384 65.52,88.699 65.946,88" style="fill:white;fill-rule:nonzero;"/>
            <path d="M58.126,30.026L59.922,23.297L61.792,30.026L58.126,30.026ZM57.025,17.649L50.677,36.422L56.371,36.422L57.025,33.932L62.789,33.932L63.485,36.422L69.263,36.422L62.924,17.649L57.025,17.649ZM17.623,36.422L23.445,36.422L23.445,30.07L29.803,30.07L29.803,25.675L23.445,25.675L23.445,22.005L31.432,22.005L31.432,17.624L17.623,17.624L17.623,36.422ZM123.423,22.005L123.423,17.624L108.797,17.624L108.797,36.422L123.423,36.422L123.423,32.049L114.619,32.049L114.619,29.203L121.914,29.203L121.914,24.839L114.619,24.839L114.619,22.005L123.423,22.005ZM42.422,25.728L39.082,25.728L39.082,21.963L42.422,21.963C43.578,21.963 44.151,22.594 44.151,23.849C44.151,25.088 43.579,25.728 42.422,25.728M49.312,23.983C49.312,19.894 46.983,17.649 42.759,17.649L33.709,17.649L33.709,36.422L39.082,36.422L39.082,30.036L40.938,30.036C41.184,30.533 44.057,36.422 44.057,36.422L49.848,36.422C49.848,36.422 46.579,29.941 46.079,29.034C48.058,28.17 49.312,26.271 49.312,23.983M98.129,32.185C95.596,32.185 94.758,29.568 94.758,27.031C94.758,24.508 95.596,21.868 98.129,21.868C100.383,21.868 100.888,23.956 100.996,24.639L106.302,24.639C105.832,19.925 103.159,17.213 98.283,17.204C92.826,17.204 89.287,21.116 89.287,27.031C89.287,32.589 92.541,36.864 98.283,36.864C103.464,36.864 106.376,32.841 106.376,29.061L101.007,29.061C100.679,30.821 99.973,32.185 98.129,32.185M81.518,27.675L81.467,27.675L76.305,17.649L70.705,17.649L70.705,36.422L75.883,36.422L75.883,26.157L75.922,26.157L81.37,36.422L86.684,36.422L86.684,17.649L81.518,17.649L81.518,27.675Z" style="fill:white;fill-rule:nonzero;"/>
            <path d="M58.358,60.351L50.548,60.351L58.358,50.848L58.358,60.351ZM67.928,60.351L67.928,41.434L58.776,41.434L44.147,59.486L44.147,67.091L30.236,67.091L30.236,67.043C36.268,63.138 44.261,60.404 44.261,51.712C44.261,44.501 38.98,41.051 31.193,41.051C22.588,41.051 17.116,46.397 17.623,55.723L26.276,55.723C26.168,51.577 27.42,48.745 31.111,48.745C33.248,48.745 34.969,49.821 34.969,52.885C34.969,55.383 32.287,56.728 30.65,57.801C26.543,60.452 21.962,63.037 19.271,66.989C17.702,69.279 16.79,72.124 16.977,75.384L44.722,75.384L44.722,68.63L58.359,68.63L58.359,75.384L67.928,75.384L67.928,68.63L72.258,68.63L72.258,60.351L67.928,60.351Z" style="fill:white;fill-rule:nonzero;"/>
        </g>
    </g>
</svg>
